X: 1870
T: Armorica
R: hornpipe
M: 4/4
K: Aminor
e2ed ecAc|~B3c dfed|~e3d ecA2|BA^GB A2Ed|
e2ed ecA2|~B3d f3a|~e3d ecA2|BA^GB A2EA|
~B3c dcBd|e2ed edce|cdd/d/d dcBe|dcBc A2EA|
B2Bc dcBd|deed eda2|f3e fedc|dcBc A2E2|

